app/img/icons/mail.svg

<svg width="20" height="20" viewBox="0 0 20 20" fill="none" xmlns="http://www.w3.org/2000/svg">
<path d="M10 0L0.617188 6.65768L10 14.5766L19.3828 6.65768L10 0Z" fill="#F3D79A"/>
<path d="M13.8738 12.8417L20 19.1783V7.67188L13.8738 12.8417Z" fill="#F3D79A"/>
<path d="M0 7.67188V19.1783L6.12578 12.8417L0 7.67188Z" fill="#F3D79A"/>
<path d="M12.9763 13.5977L10.0001 16.1095L7.02393 13.5977L0.834473 19.9994H19.1657L12.9763 13.5977Z" fill="#F3D79A"/>
</svg>

<svg width="20" height="20" fill="none" xmlns="http://www.w3.org/2000/svg"><path d="M10 0L.617 6.658 10 14.577l9.383-7.92L10 0zM13.874 12.842L20 19.178V7.672l-6.126 5.17zM0 7.672v11.506l6.126-6.336L0 7.672z" fill="#F3D79A"/><path d="M12.976 13.598L10 16.109l-2.976-2.511-6.19 6.401h18.332l-6.19-6.401z" fill="#F3D79A"/></svg>
